packages/ui-icons/svg/Line/like.svg

<svg viewBox="0 0 1920 1920" version="1.1" xmlns="http://www.w3.org/2000/svg">
    <path d="M1637.17647,1129.41176 L1524.23529,1129.41176 L1524.23529,1242.35294 C1586.46588,1242.35294 1637.17647,1292.95059 1637.17647,1355.29412 C1637.17647,1417.63765 1586.46588,1468.23529 1524.23529,1468.23529 L1411.29412,1468.23529 L1411.29412,1581.17647 C1473.52471,1581.17647 1524.23529,1631.77412 1524.23529,1694.11765 C1524.23529,1756.46118 1473.52471,1807.05882 1411.29412,1807.05882 L451.294118,1807.05882 C295.661176,1807.05882 168.941176,1680.45176 168.941176,1524.70588 L168.941176,903.529412 L275.557647,903.529412 C415.717647,903.529412 549.891765,845.929412 643.858824,745.750588 C778.484706,602.089412 937.28,379.256471 957.383529,112.941176 L993.750588,112.941176 C1044.23529,112.941176 1091.78353,135.303529 1124.08471,174.381176 C1156.72471,213.910588 1169.93882,265.524706 1160.22588,315.896471 C1137.52471,434.484706 1100.02824,551.943529 1048.97882,664.997647 C1025.14824,717.515294 1029.66588,777.6 1060.72471,825.938824 C1092.12235,874.503529 1145.43059,903.529412 1203.36941,903.529412 L1637.17647,903.529412 C1699.40706,903.529412 1750.11765,954.127059 1750.11765,1016.47059 C1750.11765,1078.81412 1699.40706,1129.41176 1637.17647,1129.41176 M1863.05882,1016.47059 C1863.05882,891.896471 1761.75059,790.588235 1637.17647,790.588235 L1203.36941,790.588235 C1183.71765,790.588235 1166.32471,781.214118 1155.70824,764.724706 C1145.31765,748.574118 1143.84941,729.148235 1151.86824,711.529412 C1206.53176,590.456471 1246.73882,464.414118 1271.24706,337.016471 C1287.17176,253.44 1265.37412,167.943529 1211.16235,102.437647 C1157.28941,37.3835294 1078.00471,2.84217094e-14 993.750588,2.84217094e-14 L846.588235,2.84217094e-14 L846.588235,56.4705882 C846.588235,310.927059 691.52,529.694118 561.524706,668.498824 C488.790588,745.976471 384.545882,790.588235 275.557647,790.588235 L56,790.588235 L56,1524.70588 C56,1742.68235 233.317647,1920 451.294118,1920 L1411.29412,1920 C1535.86824,1920 1637.17647,1818.69176 1637.17647,1694.11765 C1637.17647,1647.69882 1623.05882,1604.44235 1599.00235,1568.52706 C1686.87059,1537.58118 1750.11765,1453.66588 1750.11765,1355.29412 C1750.11765,1308.87529 1736,1265.61882 1711.94353,1229.70353 C1799.81176,1198.75765 1863.05882,1114.84235 1863.05882,1016.47059" stroke="none" stroke-width="1" fill-rule="evenodd"/>
</svg>

<svg viewBox="0 0 1920 1920" version="1.1" xmlns="http://www.w3.org/2000/svg">
    <path d="M1637.176 1129.412h-112.94v112.94c62.23 0 112.94 50.599 112.94 112.942 0 62.344-50.71 112.941-112.94 112.941h-112.942v112.941c62.23 0 112.941 50.598 112.941 112.942 0 62.343-50.71 112.94-112.94 112.94h-960c-155.634 0-282.354-126.606-282.354-282.352V903.529h106.617c140.16 0 274.334-57.6 368.3-157.778C778.486 602.089 937.28 379.256 957.385 112.94h36.367c50.484 0 98.033 22.363 130.334 61.44 32.64 39.53 45.854 91.144 36.14 141.515-22.7 118.589-60.197 236.048-111.246 349.102-23.83 52.517-19.313 112.602 11.746 160.94 31.397 48.566 84.706 77.591 142.644 77.591h433.807c62.231 0 112.942 50.598 112.942 112.942 0 62.343-50.71 112.94-112.942 112.94m225.883-112.94c0-124.575-101.308-225.883-225.883-225.883H1203.37c-19.651 0-37.044-9.374-47.66-25.863-10.391-16.15-11.86-35.577-3.84-53.196 54.663-121.073 94.87-247.115 119.378-374.513 15.925-83.576-5.873-169.072-60.085-234.578C1157.29 37.384 1078.005 0 993.751 0H846.588v56.47c0 254.457-155.068 473.224-285.063 612.029-72.734 77.477-176.98 122.09-285.967 122.09H56v734.117C56 1742.682 233.318 1920 451.294 1920h960c124.574 0 225.882-101.308 225.882-225.882 0-46.42-14.117-89.676-38.174-125.59 87.869-30.947 151.116-114.862 151.116-213.234 0-46.419-14.118-89.675-38.174-125.59 87.868-30.946 151.115-114.862 151.115-213.233" stroke="none" stroke-width="1" fill-rule="evenodd"/>
</svg>
